X:6
T:MacGregor of Ruaro's Lament
M:3/4
L:1/8
Q:1/4=84
R:retreat
S:David Glen's Collection of Highland Bagpipe Music
K:AMix
%%MIDI drone 70 45 33 70 70
%%MIDI droneon
{/g}A3/2B/ | {/GdG}e2 {/A}e2 {/gef}e3/2d/ | {/g}e2 {/g}A2 {/g}A3/2B/ | {/GdG}e2 {/A}e2 {/gfg}f3/2e/ | {/g}e/d3/2 {/G}B/{/G}A3/2 {/g}A3/2B/2 |!
{/GdGc}d2 {/g}e3/2d/ {/Bd}B3/2{/G}A/ | {/g}A{/d}G {/gf}g2 {/G}d/{/A}e3/2 | {/g}G2 {/d}A2 {/GdGc}d3/2c/ | {/gBd}B2 {/G}A2 :|!
|: {/gf}g3/2e/ | {/ag}a2 {/g}a2 {/f}g3/2e/ | {/GdGc}d2 {/g}d2 {/gf}g3/2e/ | {/ag}a2 {/g}a2 {/f}g3/2e/ | {/gf}g2 {/GdGc}d2 {/g}e3/2f/ |!
{/gf}g2 a2 {/f}g3/2e/ [1 {/GdGc}d2 {/gf}g2 {/a}e/g3/2 |2 {/GdGc}d2 {/ag}a2 e/f/g || {/g}G2 {/d}A2 {/GdGc}d3/2c/ | {/gBd}B2 {/G}A2 :|

